X: 16762
T: Hare's Paw, The
R: reel
M: 4/4
K: Eminor
|:A|GFGA BEE2|Bcdc BEE2|GFGA BABd|1 eged edB:|2 egfd e2ef||
gfga edBd|d2ed Bdd2|gfga edBd|egfd e2ef|
gfga edBd|d2ed Bdd2|bgaf gefd|egfd edB||

